X: 18286
T: Humours Of Swanlinbar, The
R: reel
M: 4/4
K: Cmajor
GFDG GFDG|GFDF AFDG|GFDG GFDF|E2 CE GECE|
GFDG GFDG|GFDF AFDG|GFDG GFDF|E2 CE GECc|
BdAd BdAG|FDFG AFDA|B2 Ac B2 AF|E2 CE GECc|
BdAd BdAG|FDFG AFDA|B2 Ac B2 AF|DEED EGce|
f2 df fedf|fedf afdf|f2 dg fedf|edcd efge|
f2 df fedf|fedf afdf|f2 dg f2 df|edcd efge|
fdec dcAG|FDFG AFDA|B2 Ac B2 AF|DEED EGce|
fdec dcAG|FDFG AFDA|B2 Ac B2 AF|DEED EFGF|

